!!!!SEGMENT: pl-lzu--m-15111--001-041_noskowski-zygmunt--spiewnik-dla-dzieci-op-34-41-jesienia.krn
!!!cenid: 18xx:4738
!!!COM: Noskowski, Zygmunt
!!!COM-rismID: pe106604
!!!CDT: 1846/05/02-1909/07/23
!!!CNT: Polish
!!!GTL: Śpiewnik dla dzieci, op. 34
!!!OTL: 41. Jesienią
!!!OMV: 041
!!!PDT: 1890
!!!AGN: Secular; Song; Children
!!!YEC: Copyright 2022 Narodowy Instytut Fryderyka Chopina (https://polishscores.org)
!!!YEM: License CC-BY-4.0 (https://creativecommons.org/licenses/by/4.0)
!!!SMS-siglum: PL-LŹu
!!!SMS-shelfmark: M 15111
!!!SMS-variant:
!!!SMS-altvar:
!!!SMS-shelfwork: 001-041 G
!!!NIFC-rismSourceID: 1001234040
!!!NIFC-rismChildID: 1001234040
!!!NIFC-islandoraID: pl-lzu:5455
!!!URL-pdf-islandora: https://repozytorium.nifc.pl/islandora/object/pl-lzu%3A5455/datastream/PDF/view
!!!URL-scan: https://polish.musicsources.pl/pl/lokalizacje/galeria/druki-muzyczne/23228/49 @EN{Scan on Polish Music Sources Website} @PL{Skany w portalu Dziedzictwo Muzyki Polskiej w otwartym dostępie}
!!!IIIF:
!!!ONB-nifc:
!!!AIN: 1 piano 1 vox
!!!key: B-
!!!OMD: Moderato.
**kern	**kern	**dynam	**kern	**text	**text	**dynam
*part2	*part2	*part2	*part1	*part1	*part1	*part1
*staff3	*staff2	*staff2/3	*staff1	*staff1	*staff1	*staff1
*I"[Piano]	*I"[Piano]	*	*I"Voce	*	*	*
*I'pf	*I'pf	*	*I'V	*	*	*
*Ipiano	*Ipiano	*	*Ivox	*	*	*
*ICklav	*ICklav	*	*ICvox	*	*	*
*IGacmp	*IGacmp	*	*IGsolo	*	*	*
*>[A,B,B,C]	*>[A,B,B,C]	*>[A,B,B,C]	*>[A,B,B,C]	*>[A,B,B,C]	*>[A,B,B,C]	*>[A,B,B,C]
*>A	*>A	*>A	*>A	*>A	*>A	*>A
*clefF4	*clefG2	*	*clefG2	*	*	*
*k[b-e-]	*k[b-e-]	*	*k[b-e-]	*	*	*
*B-:	*B-:	*	*B-:	*	*	*
*M2/4	*M2/4	*	*M2/4	*	*	*
=1	=1	=1	=1	=1	=1	=1
!	!LO:TX:a:i:t=Umiarkowanie.	!	!	!	!	!
2r	8g/	p	2r	.	.	.
.	4g/	.	.	.	.	.
.	8g/	.	.	.	.	.
=2	=2	=2	=2	=2	=2	=2
!	!	!LO:HP:c:t=crescendo	!	!	!	!
2r	8g 8f/	<	2r	.	.	.
.	4g 4f/	.	.	.	.	.
.	8g 8f/	.	.	.	.	.
=3	=3	=3	=3	=3	=3	=3
8d\	8bn 8g 8f/	.	2r	.	.	.
4d\	4b 4g 4f/	.	.	.	.	.
8d\	8b 8g 8f/	.	.	.	.	.
=4	=4	=4	=4	=4	=4	=4
8Bn\	8dd 8g 8f/	.	2r	.	.	.
4B\	4dd 4g 4f/	.	.	.	.	.
8A\	8dd 8a 8f/	.	.	.	.	.
=5!|:	=5!|:	=5!|:	=5!|:	=5!|:	=5!|:	=5!|:
*>B	*>B	*>B	*>B	*>B	*>B	*>B
*	*	*	*	*v:1	*v:2	*
!	!	!	!	!	!	!LO:DY:rj
8G\	8ddn 8b- 8f/	mf	8dd\	Je-	Pój-	f
4G\	4ee- 4b- 4f/	.	4ee-\	-sie-	-dę	.
8G\	8dd 8b- 8f/	.	8dd\	-nią,	ja	.
!!LO:PB:g=original
=6	=6	=6	=6	=6	=6	=6
*	*	*	*	*v:1	*v:2	*
8G 8C\	8cc 8e-/	.	8cc\	je-	się,	.
4G 4C\	4g 4e-/	.	4g/	-sie-	pój-	.
8F\	8a 8e-/	.	8a/	-nią,	-dę	.
=7	=7	=7	=7	=7	=7	=7
8F 8BB-\	8fL 8d/	.	8f/	Sa-	Po-	.
4F 4BB-\	(16gL 16d/	.	16g/LL	-dy	-kło-	.
.	16a/JJ)	.	16a/JJ	.	.	.
.	8b-L 8d/	.	8b-\	się	-nić	.
8G 8BB-\	8ccJ 8en/	.	8cc\	ru-	ja-	.
=8	=8	=8	=8	=8	=8	=8
8A 8BB-\	8a 8e-X/	.	8a/	-mie-	-bło-	.
4A 4BB-\	4f 4e-/	.	4f/	-nią.	-ni,	.
8B- 8BB-\	8f 8d/	.	8r	.	.	.
=9	=9	=9	=9	=9	=9	=9
8B- 8C\	8g 8e-/	.	8g/	Czer-	Mo-	.
4B- 4C\	4ee- 4g 4e-/	.	4ee-\	-wo-	-że	.
8B- 8C\	8dd 8g 8e-/	.	8dd\	-ne	mi	.
=10	=10	=10	=10	=10	=10	=10
8A 8F\	8cc 8e-/	.	8cc\	ja-	ja-	.
4B- 4F\	4g 4e-/	.	4g/	-błu-	-błu-	.
8F\	8a 8e-/	.	8a/	-szka	-szko	.
!!LO:LB:g=original
=11	=11	=11	=11	=11	=11	=11
*	*	*	*	*v:1	*v:2	*
8FL 8BB-\	8b-L 8d/	.	8b-\	Po-	W cza-	.
8F 8BB-\	16ddL 16d/	.	(16dd\LL	-mię-	-pe-	.
.	16cc/JJ	.	16cc\JJ)	.	.	.
8F 8BB-\	8aL 8e-/	.	8a/	-dzy	-czkę	.
8FJ 8BB-\	8fJ 8e-/	.	8f/	zie-	u-	.
=12	=12	=12	=12	=12	=12	=12
8F 8BB-\	8cc 8d/	.	8cc\	-le-	-ro-	.
4F 4BB-\	4b- 4d/	.	4b-\	-nią.	-ni!	.
8B-\	8f 8d/	.	8r	.	.	.
=13	=13	=13	=13	=13	=13	=13
8c 8F\	8a 8f/	.	8a/	Czer-	Pój-	.
4B- 4F\	4dd 4en/	.	4dd\	-wo-	-dę	.
8G 8F\	16ccLL 16e/	.	(16cc\LL	-ne	ja	.
.	16b-/JJ	.	16b-\JJ)	.	.	.
=14	=14	=14	=14	=14	=14	=14
8c 8F\	8a 8f/	.	8a/	ja-	do	.
4A 4F\	4cc 4f/	.	4cc\	-błu-	gru-	.
8A 8F\	8f/	.	8f/	-szka	-szy,	.
=15	=15	=15	=15	=15	=15	=15
8B-L 8C\	8gL 8en/	.	8g/	Zło-	Na-	.
8GJ 8C\	16b-L 16e/	.	(16b-/LL	-ci-	-sta-	.
.	16a/JJ	.	16a/JJ)	.	.	.
8cL 8C\	8gL 8e/	.	8g/	-ste	-wię	.
8B-J 8C\	8aJ 8e/	.	8a/	gru-	far-	.
!!LO:LB:g=original
=16	=16	=16	=16	=16	=16	=16
*	*	*	*	*v:1	*v:2	*
8A 8F\	4f/	.	4f/	-szecz-	-tu-	.
4A 4F\	.	.	.	.	.	.
.	4cc\	.	4cc,\	-ki,	-szka,	.
8En\	.	.	.	.	.	.
=17	=17	=17	=17	=17	=17	=17
8AL 8D\	8ccL 8f/	.	8cc\	Świe-	Mo-	.
8AJ 8D\	8ffJ 8f/	.	8ff\	-cą	-że	.
8cL 8En\	8ccL 8g/	.	8cc\	się,	w nie-	.
8cJ 8E\	8b-J 8g/	.	8b-\	jak	-go	.
=18	=18	=18	=18	=18	=18	=18
8cL 8F\	8aL 8f/	.	(8a/L	gwia-	spa-	.
8D\J	8b-J 8f 8d/	.	8b-/J)	.	.	.
8AA/L	8ccL 8f 8c/	.	4cc\	-zdy,	-dnie	.
8AA/J	8fJ 8c/	.	.	.	.	.
=19	=19	=19	=19	=19	=19	=19
8GG\L	8b-L 8d 8B-/	.	8b-\	Po-	Ja-	.
8G\J	8dJ 8B-/	.	8d/	-mię-	-ka	.
8C/L	8enL 8B-/	.	8en/	-dzy	śli-	.
8C/J	(16fL 16B-/	.	(16f/LL	li-	-czna	.
.	16g/JJ)	.	16g/JJ)	.	.	.
!!LO:PB:g=original
=20	=20	=20	=20	=20	=20	=20
*	*	*	*	*v:1	*v:2	*
8C 8FF/	8g 8B-/	.	8g/	-ste-	gru-	.
4C 4FF/	4f 4A/	.	4f/	-czki.	-szka!	.
8F\	8r	.	8r	.	.	.
=21	=21	=21	=21	=21	=21	=21
!	!	!LO:DY:c:rj	!	!	!	!
2r	8f/	p	2r	.	.	.
.	4f/	.	.	.	.	.
.	8f/	.	.	.	.	.
=22	=22	=22	=22	=22	=22	=22
!	!	!LO:HP:c:t=crescendo	!	!	!	!
2r	8g 8f/	<	2r	.	.	.
.	4g 4f/	.	.	.	.	.
.	8g 8f/	.	.	.	.	.
=23	=23	=23	=23	=23	=23	=23
8d\	8bn 8g 8f/	.	2r	.	.	.
4d\	4b 4g 4f/	.	.	.	.	.
8d\	8b 8g 8f/	.	.	.	.	.
=24	=24	=24	=24	=24	=24	=24
8Bn\	8dd 8f/	.	2r	.	.	.
4B\	4dd 4g 4f/	.	.	.	.	.
8A\	8dd 8a 8f/	.	.	.	.	.
!!LO:LB:g=original
=25:|!	=25:|!	=25:|!	=25:|!	=25:|!	=25:|!	=25:|!
*>C	*>C	*>C	*>C	*>C	*>C	*>C
*	*	*	*	*v:3	*	*
!	!	!LO:DY:c:rj	!	!	!	!LO:DY:rj
8G\	8dd 8bn 8f/	mf	8dd\	Je-	.	f
4G\	4ee- 4b 4f/	.	4ee-\	-sie-	.	.
8G\	8dd 8b 8f/	.	8dd\	-nią,	.	.
=26	=26	=26	=26	=26	=26	=26
8G 8C\	8cc 8e-/	.	8cc\	je-	.	.
4G 4C\	4g 4e-/	.	4g/	-sie-	.	.
8F\	8a 8e-/	.	8a/	-nią,	.	.
=27	=27	=27	=27	=27	=27	=27
8F 8BB-\	8fL 8d/	.	8f/	Sa-	.	.
4F 4BB-\	(16gL 16e-/	.	(16g/LL	-dy	.	.
.	16a/JJ)	.	16a/JJ)	.	.	.
.	8b-L 8d/	.	8b-\	się	.	.
8G 8BB-\	8ccJ 8en/	.	8cc\	ru-	.	.
=28	=28	=28	=28	=28	=28	=28
8A 8BB-\	8a 8e-X/	.	8a/	-mie-	.	.
4A 4BB-\	4f 4e-/	.	4f/	-nią,	.	.
8B- 8BB-\	8f 8d/	.	8r	.	.	.
=29	=29	=29	=29	=29	=29	=29
8B- 8C\	8g 8e-/	.	8g/	Czer-	.	.
4B- 4C\	4ee- 4g 4e-/	.	4ee-\	-wo-	.	.
8B- 8C\	8cc 8g 8e-/	.	8dd\	-ne	.	.
!!LO:LB:g=original
=30	=30	=30	=30	=30	=30	=30
*	*	*	*	*v:3	*	*
8A 8F\	8cc 8e-/	.	8cc\	ja-	.	.
4B- 4F\	4g 4e-/	.	4g/	-błu-	.	.
8c 8F\	8a 8f/	.	8a/	-szka	.	.
=31	=31	=31	=31	=31	=31	=31
8B-L 8D\	8b-L 8f/	.	8b-\	Po-	.	.
8B-J 8C\	(16ddL 16en/	.	(16dd\LL	-mię-	.	.
.	16cc/JJ)	.	16cc\JJ)	.	.	.
8cL 8F\	8aL 8e-X/	.	8a/	-dzy	.	.
8AJ 8F\	8fJ 8e-/	.	8f/	zie-	.	.
=32	=32	=32	=32	=32	=32	=32
8A 8BB-\	8cc 8e-/	.	8cc\	-le-	.	.
4B- 4BB-\	4b- 4d/	>	4b-\	-nią.	.	.
8F 8BB-/	8b- 8d/	.	8r	.	.	.
=33	=33	=33	=33	=33	=33	=33
8F 8BB-/	8b- 8d/	.	2r	.	.	.
4F 4BB-/	4b- 4d/	.	.	.	.	.
8F 8BB-/	8b- 8d/	]	.	.	.	.
=34	=34	=34	=34	=34	=34	=34
!	!	!LO:DY:c:rj	!	!	!	!
2F 2BB-;\	2b- 2d;/	p	2r;	.	.	.
==	==	==	==	==	==	==
*-	*-	*-	*-	*-	*-	*-
!!!system-decoration: p1{p2}
!!!RDF**kern: > = above
!!!RDF**kern: < = below
!!!ENC: Andrzej Gręziak
!!!END: 2025-03-06
!!!ENC: Marta Lawrence
!!!END: 2025-03-23
